Images/Microsoft.svg

<svg xmlns="http://www.w3.org/2000/svg" xmlns:xlink="http://www.w3.org/1999/xlink" viewBox="0,0,256,256" width="50px" height="50px" fill-rule="nonzero"><g fill="#9ca3af" fill-rule="nonzero" stroke="none" stroke-width="1" stroke-linecap="butt" stroke-linejoin="miter" stroke-miterlimit="10" stroke-dasharray="" stroke-dashoffset="0" font-family="none" font-weight="none" font-size="none" text-anchor="none" style="mix-blend-mode: normal"><g transform="scale(5.12,5.12)"><path d="M5,4c-0.552,0 -1,0.447 -1,1v19h20v-20zM26,4v20h20v-19c0,-0.553 -0.448,-1 -1,-1zM4,26v19c0,0.553 0.448,1 1,1h19v-20zM26,26v20h19c0.552,0 1,-0.447 1,-1v-19z"></path></g></g></svg>

<?xml version="1.0"?><svg xmlns="http://www.w3.org/2000/svg"  viewBox="0 0 50 50" width="50px" height="50px">    <path d="M 5 4 C 4.448 4 4 4.447 4 5 L 4 24 L 24 24 L 24 4 L 5 4 z M 26 4 L 26 24 L 46 24 L 46 5 C 46 4.447 45.552 4 45 4 L 26 4 z M 4 26 L 4 45 C 4 45.553 4.448 46 5 46 L 24 46 L 24 26 L 4 26 z M 26 26 L 26 46 L 45 46 C 45.552 46 46 45.553 46 45 L 46 26 L 26 26 z"/></svg>
